Sources/FrostedUI/Resources/Icons.xcassets/whopLogo16.imageset/whop-logo-16.svg

<svg width="16" height="16" viewBox="0 0 16 16" fill="none" xmlns="http://www.w3.org/2000/svg" data-fui-icon="true">
  <path
    d="M12.4521 4.92535C13.056 4.92535 13.6728 5.37441 14 5.82477H13.9941L9.26855 10.5504C8.56899 11.2494 7.42406 11.2496 6.72461 10.5504L6.27246 10.0982L10.5449 5.82477C10.5536 5.8144 10.709 5.66266 10.709 5.66266C11.1203 5.27145 11.6638 4.92542 12.4521 4.92535ZM8.17383 4.92535C8.77768 4.92535 9.39449 5.37443 9.72168 5.82477L5.86133 9.6861L4.13672 7.96051L6.27148 5.82477C6.27838 5.81577 6.43066 5.66266 6.43066 5.66266C6.842 5.27145 7.38547 4.92547 8.17383 4.92535ZM3.9082 4.92535C4.51158 4.92557 5.12796 5.37457 5.45508 5.82477L3.72754 7.55231L2 5.82477C2.00107 5.81716 2.16406 5.66266 2.16406 5.66266C2.57547 5.27135 3.11958 4.92535 3.9082 4.92535Z"
    fill="currentColor"
  />
</svg>

<svg xmlns="http://www.w3.org/2000/svg" width="16" height="16" fill="none" data-fui-icon="true" viewBox="0 0 16 16"><path fill="currentColor" d="M12.452 4.925c.604 0 1.22.45 1.548.9h-.006L9.27 10.55c-.7.7-1.845.7-2.544 0l-.453-.452 4.273-4.273.164-.162c.411-.392.955-.738 1.743-.738m-4.278 0c.604 0 1.22.45 1.548.9l-3.86 3.861-1.725-1.725L6.27 5.825c.007-.01.16-.162.16-.162.411-.392.954-.738 1.743-.738m-4.266 0c.604 0 1.22.45 1.547.9L3.728 7.552 2 5.825c.001-.008.164-.162.164-.162.411-.392.956-.738 1.744-.738"/></svg>
